img/social/ya_zen.svg

<svg width="50" height="50" viewBox="0 0 50 50" fill="none" xmlns="http://www.w3.org/2000/svg">
<rect width="50" height="50" rx="12" fill="white"/>
<path d="M36.4556 9.87115C33.3502 7.4889 29.4822 6.24095 25.5867 6.03637C25.7283 9.55746 25.6758 13.1467 26.6508 16.5633C27.3769 19.2365 29.2561 21.6073 31.8021 22.7689C35.6336 24.4169 39.9058 24.2942 43.9976 24.4601C43.9976 18.7841 41.0132 13.2354 36.4556 9.87115ZM24.4268 6C20.9789 6.28642 17.5264 7.18885 14.6356 9.14375C9.48434 12.4375 6.1095 18.3522 6.0136 24.4601C9.79944 24.326 13.6949 24.3806 17.3209 23.1417C19.9376 22.2211 22.1388 20.1594 23.0545 17.5293C24.3925 13.8491 24.3606 9.85978 24.4268 6ZM16.6336 26.6628C13.1743 25.7172 9.55969 25.6876 5.9999 25.6035C6.1232 30.4112 8.18509 35.1461 11.6581 38.4967C15.0055 41.8633 19.691 43.8068 24.4291 43.9977C24.3377 40.0675 24.4039 35.994 22.9654 32.2661C21.9402 29.511 19.4422 27.4584 16.6336 26.6628ZM43.9999 25.6103C39.698 25.7626 35.1039 25.5649 31.1787 27.6175C28.4935 28.9837 26.9134 31.8251 26.3494 34.6847C25.7055 37.7466 25.6872 40.8881 25.6073 44C30.6878 43.8068 35.6701 41.5677 39.0884 37.8034C42.0864 34.4915 44.0159 30.1021 43.9999 25.6103Z" fill="url(#paint0_linear_3299_7321)"/>
<defs>
<linearGradient id="paint0_linear_3299_7321" x1="17" y1="41.5" x2="33.5" y2="8" gradientUnits="userSpaceOnUse">
<stop stop-color="#181A27"/>
<stop offset="1" stop-color="#2D2F3B"/>
</linearGradient>
</defs>
</svg>

<svg width="50" height="50" fill="none" xmlns="http://www.w3.org/2000/svg"><rect width="50" height="50" rx="12" fill="#fff"/><path d="M36.456 9.871c-3.106-2.382-6.974-3.63-10.87-3.835.142 3.521.09 7.11 1.065 10.527.726 2.674 2.605 5.044 5.151 6.206 3.832 1.648 8.104 1.525 12.196 1.691 0-5.676-2.985-11.225-7.542-14.589ZM24.426 6c-3.447.286-6.9 1.189-9.79 3.144-5.152 3.293-8.526 9.208-8.622 15.316 3.785-.134 7.68-.08 11.307-1.318 2.617-.92 4.818-2.983 5.733-5.613C24.393 13.85 24.361 9.86 24.428 6Zm-7.792 20.663c-3.46-.946-7.074-.975-10.634-1.06.123 4.808 2.185 9.543 5.658 12.894 3.348 3.366 8.033 5.31 12.771 5.5-.091-3.93-.025-8.003-1.464-11.73-1.025-2.756-3.523-4.809-6.331-5.604ZM44 25.61c-4.302.153-8.896-.045-12.821 2.008-2.685 1.366-4.266 4.207-4.83 7.067-.643 3.062-.662 6.203-.742 9.315 5.08-.193 10.063-2.432 13.481-6.197 2.998-3.311 4.928-7.7 4.912-12.193Z" fill="url(#a)"/><defs><linearGradient id="a" x1="17" y1="41.5" x2="33.5" y2="8" gradientUnits="userSpaceOnUse"><stop stop-color="#181A27"/><stop offset="1" stop-color="#2D2F3B"/></linearGradient></defs></svg>
